public/icons/docs.svg

<svg xmlns:xlink="http://www.w3.org/1999/xlink" height="20" viewBox="0 0 16 20" fill="none" xmlns="http://www.w3.org/2000/svg" width="16" ><path fill-rule="evenodd" clip-rule="evenodd" d="M2 0C0.9 0 0.01 0.9 0.01 2L0 18C0 19.1 0.89 20 1.99 20H14C15.1 20 16 19.1 16 18V6.83C16 6.3 15.79 5.79 15.41 5.42L10.58 0.59C10.21 0.21 9.7 0 9.17 0H2ZM9 6V1.5L14.5 7H10C9.45 7 9 6.55 9 6ZM4 10C3.44772 10 3 10.4477 3 11C3 11.5523 3.44772 12 4 12H12C12.5523 12 13 11.5523 13 11C13 10.4477 12.5523 10 12 10H4ZM10 15C10 14.4477 9.55228 14 9 14H4C3.44772 14 3 14.4477 3 15C3 15.5523 3.44772 16 4 16H9C9.55228 16 10 15.5523 10 15Z" fill="#7F66FF"></path></svg>

<svg xmlns="http://www.w3.org/2000/svg" height="20" fill="none" width="16" xmlns:v="https://vecta.io/nano"><path fill-rule="evenodd" d="M2 0C.9 0 .01.9.01 2L0 18c0 1.1.89 2 1.99 2H14c1.1 0 2-.9 2-2V6.83c0-.53-.21-1.04-.59-1.41L10.58.59C10.21.21 9.7 0 9.17 0H2zm7 6V1.5L14.5 7H10c-.55 0-1-.45-1-1zm-5 4a1 1 0 1 0 0 2h8a1 1 0 1 0 0-2H4zm6 5a1 1 0 0 0-1-1H4a1 1 0 1 0 0 2h5a1 1 0 0 0 1-1z" fill="#7f66ff"/></svg>
